X: 1
T: Anneli Walzer
O: Germany
R: waltz
Z: 2005 John Chambers <jc:trillian.mit.edu>
M: 3/4
L: 1/4
K: Bb
   g | "Bb"f2B | d2g | "F7"f2c | e2f |     a2g |1 f2e | "Bb"dfb | "(F7)"f2 :|2 "F7"fga | "Bb"b3- | Hbz |
|: b | "F7"a3  | ceg | "Bb"f3  | Bdg | "F7"f2e |1 d2c | "Bb"Bdg | f2 :|2 "F7"d2c | "Bb"B3- | Bz |
K:Eb
|: g | "Eb"e3  | B3  |     G3  | B2e |"Bb7"d2B |1 f2d | "Eb"e2f | g2 :|2"Bb7"g2f | "Eb"e3- | ez :|
